Numix-Light-GalliumOS/22/status/hangouts-offline-unknown.svg

<?xml version="1.0" encoding="UTF-8" standalone="no"?>
<!-- Generator: Adobe Illustrator 16.0.0, SVG Export Plug-In . SVG Version: 6.00 Build 0)  -->

<svg
   xmlns:dc="http://purl.org/dc/elements/1.1/"
   xmlns:cc="http://creativecommons.org/ns#"
   xmlns:rdf="http://www.w3.org/1999/02/22-rdf-syntax-ns#"
   xmlns:svg="http://www.w3.org/2000/svg"
   xmlns="http://www.w3.org/2000/svg"
   xmlns:sodipodi="http://sodipodi.sourceforge.net/DTD/sodipodi-0.dtd"
   xmlns:inkscape="http://www.inkscape.org/namespaces/inkscape"
   version="1.1"
   id="Capa_1"
   x="0px"
   y="0px"
   width="22"
   height="22"
   viewBox="0 0 22 22"
   xml:space="preserve"
   inkscape:version="0.91 r"
   sodipodi:docname="hangouts-offline-unknown.svg"><metadata
     id="metadata42"><rdf:RDF><cc:Work
         rdf:about=""><dc:format>image/svg+xml</dc:format><dc:type
           rdf:resource="http://purl.org/dc/dcmitype/StillImage" /><dc:title /></cc:Work></rdf:RDF></metadata><defs
     id="defs40" /><sodipodi:namedview
     pagecolor="#ffffff"
     bordercolor="#666666"
     borderopacity="1"
     objecttolerance="10"
     gridtolerance="10"
     guidetolerance="10"
     inkscape:pageopacity="0"
     inkscape:pageshadow="2"
     inkscape:window-width="1920"
     inkscape:window-height="1056"
     id="namedview38"
     showgrid="true"
     inkscape:zoom="28.893352"
     inkscape:cx="1.1470848"
     inkscape:cy="5.2956901"
     inkscape:window-x="0"
     inkscape:window-y="24"
     inkscape:window-maximized="1"
     inkscape:current-layer="Capa_1"><inkscape:grid
       type="xygrid"
       id="grid4170" /></sodipodi:namedview><g
     id="g3"
     transform="matrix(0.03690888,0,0,0.03690888,1.3529415,2.705883)"
     style="fill:#353535;fill-opacity:1;opacity:0.4"><g
       id="hangout"
       style="fill:#353535;fill-opacity:1"><path
         style="fill:#353535;fill-opacity:1"
         d="M 11 3 C 6.5764707 3 3 6.5764707 3 11 C 3 15.423529 6.5764707 19 11 19 L 11 22 C 15.611765 19.835294 19 15.235294 19 11 C 19 6.5764707 15.423529 3 11 3 z M 10.861328 6 C 11.415345 6 11.872311 6.0793568 12.232422 6.2363281 C 12.592533 6.3840659 12.879424 6.5718941 13.091797 6.8027344 C 13.30417 7.0335746 13.452054 7.2874448 13.535156 7.5644531 C 13.618259 7.8414614 13.660156 8.1105995 13.660156 8.3691406 C 13.660156 8.6830834 13.598553 8.9635832 13.478516 9.2128906 C 13.367712 9.4621981 13.22622 9.693877 13.050781 9.90625 C 12.875343 10.118623 12.685561 10.321719 12.482422 10.515625 C 12.279282 10.700297 12.089501 10.894517 11.914062 11.097656 C 11.738624 11.291562 11.59074 11.499096 11.470703 11.720703 C 11.3599 11.94231 11.304687 12.191742 11.304688 12.46875 L 11.304688 12.634766 C 11.304688 12.690167 11.309126 12.74538 11.318359 12.800781 L 9.8789062 12.800781 C 9.860439 12.708445 9.8451711 12.611335 9.8359375 12.509766 C 9.8267039 12.398962 9.8222656 12.297414 9.8222656 12.205078 C 9.8222656 11.900369 9.8730397 11.628746 9.9746094 11.388672 C 10.076179 11.148598 10.20631 10.925796 10.363281 10.722656 C 10.520253 10.519517 10.68589 10.329735 10.861328 10.154297 C 11.046 9.9788583 11.216076 9.8043448 11.373047 9.6289062 C 11.530018 9.4534677 11.660149 9.2725628 11.761719 9.0878906 C 11.863288 8.9032184 11.914063 8.7001223 11.914062 8.4785156 C 11.914062 8.1738065 11.808076 7.9243746 11.595703 7.7304688 C 11.392564 7.5273293 11.083481 7.4257812 10.667969 7.4257812 C 10.344792 7.4257812 10.03571 7.4676788 9.7402344 7.5507812 C 9.4447589 7.6246501 9.1356764 7.7503427 8.8125 7.9257812 L 8.3398438 6.6367188 C 8.6814873 6.4428129 9.0699266 6.2904908 9.5039062 6.1796875 C 9.9471195 6.0596506 10.399648 6 10.861328 6 z M 10.640625 13.796875 C 10.954568 13.796875 11.217314 13.904814 11.429688 14.117188 C 11.642061 14.320327 11.748047 14.583074 11.748047 14.90625 C 11.748047 15.229426 11.642061 15.492173 11.429688 15.695312 C 11.217314 15.898452 10.954568 16 10.640625 16 C 10.335916 16 10.071216 15.898452 9.8496094 15.695312 C 9.6372363 15.492173 9.53125 15.229426 9.53125 14.90625 C 9.53125 14.583074 9.6372363 14.320327 9.8496094 14.117188 C 10.071216 13.904814 10.335916 13.796875 10.640625 13.796875 z "
         transform="matrix(27.093751,0,0,27.093751,-36.65626,-73.31252)"
         id="path6" /></g></g><g
     id="g8"
     transform="translate(0,-500.75)" /><g
     id="g10"
     transform="translate(0,-500.75)" /><g
     id="g12"
     transform="translate(0,-500.75)" /><g
     id="g14"
     transform="translate(0,-500.75)" /><g
     id="g16"
     transform="translate(0,-500.75)" /><g
     id="g18"
     transform="translate(0,-500.75)" /><g
     id="g20"
     transform="translate(0,-500.75)" /><g
     id="g22"
     transform="translate(0,-500.75)" /><g
     id="g24"
     transform="translate(0,-500.75)" /><g
     id="g26"
     transform="translate(0,-500.75)" /><g
     id="g28"
     transform="translate(0,-500.75)" /><g
     id="g30"
     transform="translate(0,-500.75)" /><g
     id="g32"
     transform="translate(0,-500.75)" /><g
     id="g34"
     transform="translate(0,-500.75)" /><g
     id="g36"
     transform="translate(0,-500.75)" /></svg>

<!-- Generator: Adobe Illustrator 16.0.0, SVG Export Plug-In . SVG Version: 6.00 Build 0)  -->
<svg xmlns="http://www.w3.org/2000/svg" viewBox="0 0 22 22">
 <g transform="matrix(0.03690888,0,0,0.03690888,1.3529415,2.705883)" style="fill:#353535;opacity:0.4;fill-opacity:1">
  <g>
   <path d="m 11 3 c -4.424 0 -8 3.576 -8 8 c 0 4.424 3.576 8 8 8 l 0 3 c 4.612 -2.165 8 -6.765 8 -11 c 0 -4.424 -3.576 -8 -8 -8 z m -0.139 3 c 0.554 0 1.01 0.079 1.371 0.236 c 0.36 0.148 0.647 0.336 0.859 0.566 c 0.212 0.231 0.36 0.485 0.443 0.762 c 0.083 0.277 0.125 0.546 0.125 0.805 c 0 0.314 -0.062 0.594 -0.182 0.844 c -0.111 0.249 -0.252 0.481 -0.428 0.693 c -0.175 0.212 -0.365 0.415 -0.568 0.609 c -0.203 0.185 -0.393 0.379 -0.568 0.582 c -0.175 0.194 -0.323 0.401 -0.443 0.623 c -0.111 0.222 -0.166 0.471 -0.166 0.748 l 0 0.166 c 0 0.055 0.004 0.111 0.014 0.166 l -1.439 0 c -0.018 -0.092 -0.034 -0.189 -0.043 -0.291 c -0.009 -0.111 -0.014 -0.212 -0.014 -0.305 c 0 -0.305 0.051 -0.576 0.152 -0.816 c 0.102 -0.24 0.232 -0.463 0.389 -0.666 c 0.157 -0.203 0.323 -0.393 0.498 -0.568 c 0.185 -0.175 0.355 -0.35 0.512 -0.525 c 0.157 -0.175 0.287 -0.356 0.389 -0.541 c 0.102 -0.185 0.152 -0.388 0.152 -0.609 c 0 -0.305 -0.106 -0.554 -0.318 -0.748 c -0.203 -0.203 -0.512 -0.305 -0.928 -0.305 c -0.323 0 -0.632 0.042 -0.928 0.125 c -0.295 0.074 -0.605 0.2 -0.928 0.375 l -0.473 -1.289 c 0.342 -0.194 0.73 -0.346 1.164 -0.457 c 0.443 -0.12 0.896 -0.18 1.357 -0.18 z m -0.221 7.797 c 0.314 0 0.577 0.108 0.789 0.32 c 0.212 0.203 0.318 0.466 0.318 0.789 c 0 0.323 -0.106 0.586 -0.318 0.789 c -0.212 0.203 -0.475 0.305 -0.789 0.305 c -0.305 0 -0.569 -0.102 -0.791 -0.305 c -0.212 -0.203 -0.318 -0.466 -0.318 -0.789 c 0 -0.323 0.106 -0.586 0.318 -0.789 c 0.222 -0.212 0.486 -0.32 0.791 -0.32 z" transform="matrix(27.093751,0,0,27.093751,-36.65626,-73.31252)"/>
  </g>
 </g>
</svg>
